build/images/icons/step2.svg

<svg height="60" width="60" xmlns="http://www.w3.org/2000/svg"><path d="M26.707 38.707c-.014.015-.403.441-.598 1.293H35a1 1 0 110 2H25a1 1 0 01-1-1c0-2.15.975-3.361 1.239-3.651l6.971-8.963c.026-.033.054-.064.083-.093C32.307 28.278 34 26.526 34 24c0-2.206-1.794-4-4-4s-4 1.794-4 4a1 1 0 11-2 0c0-3.309 2.691-6 6-6s6 2.691 6 6c0 3.136-1.898 5.29-2.243 5.655l-6.967 8.959a1.224 1.224 0 01-.083.093M30 58C14.561 58 2 45.439 2 30S14.561 2 30 2s28 12.561 28 28-12.561 28-28 28m0-58C13.458 0 0 13.458 0 30s13.458 30 30 30 30-13.458 30-30S46.542 0 30 0" fill="#008fcb" fill-rule="evenodd"/></svg>

<?xml version="1.0" ?><svg height="60px" version="1.1" viewBox="0 0 60 60" width="60px" xmlns="http://www.w3.org/2000/svg" xmlns:xlink="http://www.w3.org/1999/xlink"><title/><desc/><defs/><g fill="none" fill-rule="evenodd" id="People" stroke="none" stroke-width="1"><g fill="#000000" id="Icon-72"><path d="M26.707,38.707 C26.693,38.722 26.304,39.148 26.109,40 L35,40 C35.552,40 36,40.447 36,41 C36,41.553 35.552,42 35,42 L25,42 C24.448,42 24,41.553 24,41 C24,38.85 24.975,37.639 25.239,37.349 L32.21,28.386 C32.236,28.353 32.264,28.322 32.293,28.293 C32.307,28.278 34,26.526 34,24 C34,21.794 32.206,20 30,20 C27.794,20 26,21.794 26,24 C26,24.553 25.552,25 25,25 C24.448,25 24,24.553 24,24 C24,20.691 26.691,18 30,18 C33.309,18 36,20.691 36,24 C36,27.136 34.102,29.29 33.757,29.655 L26.79,38.614 C26.764,38.646 26.736,38.678 26.707,38.707 M30,58 C14.561,58 2,45.439 2,30 C2,14.561 14.561,2 30,2 C45.439,2 58,14.561 58,30 C58,45.439 45.439,58 30,58 M30,0 C13.458,0 0,13.458 0,30 C0,46.542 13.458,60 30,60 C46.542,60 60,46.542 60,30 C60,13.458 46.542,0 30,0" id="number-two" fill="#008fcb" /></g></g></svg>
